packages/icons/svg/Various_Door_24px.svg

<svg xmlns="http://www.w3.org/2000/svg" viewBox="0 0 24 24"><path d="M18 2H6a1 1 0 00-1 1v18a1 1 0 001 1h12a1 1 0 001-1V3a1 1 0 00-1-1zm-1 18H7V4h10z"/><path d="M8.5 10.5h7a.5.5 0 00.5-.5V5.5a.5.5 0 00-.5-.5h-7a.5.5 0 00-.5.5V10a.5.5 0 00.5.5zM9 6h6v3.5H9zM8.5 19h7a.5.5 0 00.5-.5V14a.5.5 0 00-.5-.5h-7a.5.5 0 00-.5.5v4.5a.5.5 0 00.5.5zm.5-4.5h6V18H9zM15.5 11.5h-2a.5.5 0 000 1h2a.5.5 0 000-1z"/></svg>

<svg xmlns="http://www.w3.org/2000/svg" viewBox="0 0 24 24"><defs></defs><g id="Calque_5" ><path  d="M18,2H6A1,1,0,0,0,5,3V21a1,1,0,0,0,1,1H18a1,1,0,0,0,1-1V3A1,1,0,0,0,18,2ZM17,20H7V4H17Z"/><path  d="M8.5,10.5h7A.5.5,0,0,0,16,10V5.5a.5.5,0,0,0-.5-.5h-7a.5.5,0,0,0-.5.5V10A.5.5,0,0,0,8.5,10.5ZM9,6h6V9.5H9Z"/><path  d="M8.5,19h7a.5.5,0,0,0,.5-.5V14a.5.5,0,0,0-.5-.5h-7A.5.5,0,0,0,8,14v4.5A.5.5,0,0,0,8.5,19ZM9,14.5h6V18H9Z"/><path  d="M15.5,11.5h-2a.5.5,0,0,0,0,1h2a.5.5,0,0,0,0-1Z"/></g></svg>
